X: 3
T: Brandywine Quick Step v.3
P: piffero secondo a0822
O: camp dupont
F: http://ancients.sudburymuster.org/mus/sng/pdf/brandywineC0.pdf
Z: 2019 John Chambers <jc:trillian.mit.edu>
M: 2/4
L: 1/16
K: G
z2 |\
g4 f4 | e2dc B2G2 | B4 d4 | g2d2 G2z2 |\
g4 f4 | e2dc B2G2 | d4 D4 | G2D2 G,2 :: z2 |\
A,4 A,4 | D4 D4 | A,4 A,4 |
D4 B,2G,2 |\
F4 f4 | G4 g4 | D4 d4 | G2D2 G,2 :: z2 |\
g4 G4 | d2 D2 d2cB | A4 F4 | G4 g2z2 |\
G4 ^G2E2 | A4 F2D2 | G2G2 D2D2 | G2D2 G,2 :|
